public/svg/laptop.svg

<svg id="laptop" xmlns="http://www.w3.org/2000/svg" viewBox="0 0 418.24876 319.5"><defs><style>.cls-1{fill:#fff;}</style></defs><title>laptop</title><path class="cls-1" d="M450.14307,402.12876H329.47354a9.59919,9.59919,0,0,1-9.59871-9.59872V178.61588a9.59919,9.59919,0,0,1,9.59871-9.59871H450.14307a9.59919,9.59919,0,0,1,9.59871,9.59871V392.53A9.59919,9.59919,0,0,1,450.14307,402.12876ZM339.07225,382.93133h101.4721V188.21459H339.07225Z" transform="translate(-41.49302 -84)"/><path class="cls-1" d="M293.82118,314.3691H96.36195a9.59919,9.59919,0,0,1-9.59871-9.59871V93.59871A9.59919,9.59919,0,0,1,96.36195,84H411.74822a9.59919,9.59919,0,0,1,9.59871,9.59871V145.706a9.59871,9.59871,0,0,1-19.19743,0V103.19742H105.96066V295.17167H293.82118a9.59872,9.59872,0,0,1,0,19.19743Z" transform="translate(-41.49302 -84)"/><circle class="cls-1" cx="348.31528" cy="261.90773" r="12.3412"/><path class="cls-1" d="M289.70744,403.5H77.16453a29.28251,29.28251,0,0,1-21.47391-9.039C41.002,379.33449,41.41977,350.2625,41.51618,346.99776l.27452-9.3175H289.70744a9.59871,9.59871,0,1,1,0,19.19742H61.16221c.86506,8.24354,3.12011,18.89211,8.31585,24.22711a9.96887,9.96887,0,0,0,7.68647,3.19779H289.70744a9.59871,9.59871,0,1,1,0,19.19742Z" transform="translate(-41.49302 -84)"/></svg>

<svg id="laptop" xmlns="http://www.w3.org/2000/svg" viewBox="0 0 418.249 319.5"><defs><style>.cls-1{fill:#fff}</style></defs><path class="cls-1" d="M450.143 402.129h-120.67a9.6 9.6 0 0 1-9.598-9.599V178.616a9.6 9.6 0 0 1 9.599-9.599h120.67a9.6 9.6 0 0 1 9.598 9.599V392.53a9.6 9.6 0 0 1-9.599 9.599Zm-111.07-19.198h101.471V188.215H339.072Z" transform="translate(-41.493 -84)"/><path class="cls-1" d="M293.821 314.37H96.361a9.6 9.6 0 0 1-9.598-9.6V93.6a9.6 9.6 0 0 1 9.599-9.6h315.386a9.6 9.6 0 0 1 9.599 9.599v52.107a9.599 9.599 0 0 1-19.197 0v-42.509H105.96v191.975h187.861a9.599 9.599 0 0 1 0 19.197Z" transform="translate(-41.493 -84)"/><circle class="cls-1" cx="348.315" cy="261.908" r="12.341"/><path class="cls-1" d="M289.707 403.5H77.165a29.283 29.283 0 0 1-21.474-9.039c-14.689-15.127-14.271-44.199-14.175-47.463l.275-9.318h247.916a9.599 9.599 0 1 1 0 19.198H61.162c.865 8.243 3.12 18.892 8.316 24.227a9.969 9.969 0 0 0 7.687 3.198h212.542a9.599 9.599 0 1 1 0 19.197Z" transform="translate(-41.493 -84)"/></svg>
